X:1
T:Title
%%score ( 1 2 3 ) { 4 | 5 }
L:1/8
Q:1/4=100
M:6/8
K:F
V:1 treble nm="Grand Piano, Soprano"
V:2 treble 
V:3 treble 
V:4 treble nm="Choir Pad, Sing We Now of Joy &amp;Gladness"
V:5 bass 
V:1
 [FA]2 [Ad] [Gd]2 [Gc] | [Fc]2 [FB] [GB]2 [FA] | [CF]2 [CF] [CE]2 [CF] | [CG]3 [DG]3 | [EG]6 | %5
w: By~W.~Gilbert * * *|||||
 [FA]2 [Ad] [Gd]2 [Gc] | [G=B]2 [Gf] [Gf]2 [Ge] | [Ge]2 [Gd] [Gc]2 [Gc] | [FA]3 [F=B]3 | [Ec]6 | %10
w: |||||
 [FA]2 [FA] [EG]2 F | [Fc]2 [^Fc] [Gc]2 [GB] | G3 [FA]3 | c6 | [EA]6 | [FA]2 [Fc] [Fd]2 [Fd] | %16
w: ||||||
 [Gg]2 [Gf] [Gf]2 [Ge] | [Ff]2 [Ad] [Gc]2 [FA] | [FG]3 [EG]3 | F6- | F3 z3 |] %21
w: |||||
V:2
 x6 | x6 | x6 | x6 | x6 | x6 | x6 | x6 | x6 | x6 | x6 | x6 | x6 | G3 z2 B | x6 | x6 | x6 | x6 | %18
 x6 | x6 | x6 |] %21
V:3
 x6 | x6 | x6 | x6 | x6 | x6 | x6 | x6 | x6 | x6 | x6 | x6 | x6 | z3 F3 | x6 | x6 | x6 | x6 | x6 | %19
 x6 | x6 |] %21
V:4
 C2 C C2 C | D2 D C2 C | A,2 A, B,2 A, | G,3 =B,3 | C6 | C2 C C2 C | G,2 =B, C2 C | C2 D E2 E | %8
 F3 D3 | C6 | C2 C C2 C | C2 D D2 D | D3 D3 | D3 D3 | ^C6 | ^C2 C B,2 B, | D2 D C2 C | C2 C C2 C | %18
 D3 C2 B, | A,6- | A,3 z3 |] %21
V:5
 F,2 F, E,2 E, | D,2 D, E,2 F, | F,2 F, G,2 F, | E,3 D,3 | C,6 | F,2 F, E,2 E, | D,2 D, C,2 C, | %7
 C,2 =B,, C,2 C, | F,3 G,3 | C,6 | F,2 A, B,2 A, | A,2 A, G,2 G, | B,3 A,3 | G,3 G,3 | A,6 | %15
 F,2 A, z3 | B,2 B, z2 B, | A,2 F, E,2 F, | B,,3 C,3 | F,6- | F,3 z3 |] %21

